icons/shield40_kr_expressway_2.svg

<svg width="20" height="20" viewBox="0 0 5.292 5.292" xmlns="http://www.w3.org/2000/svg">
 <path style="fill:#003f87;stroke:none;stroke-width:.251431;stroke-miterlimit:4;stroke-dasharray:none" d="M 4.834242,1.7199004 H 0.45775802 c 0.10838152,0.1899458 0.15857247,0.3939383 0.15857247,0.6118541 0,0.2913382 -0.0533673,0.4516661 -0.21915385,0.6654923 -0.12567535,0.1603695 -0.2596211,0.4893656 -0.2596211,0.7352659 0,0.6094042 0.5215496,1.0370895 1.27025146,1.0370895 h 0.7835933 c 0.093584,0 0.1792473,0.042536 0.2380736,0.1147036 L 2.646,5.1597 2.8651538,4.8843058 C 2.9239763,4.8121371 3.0096404,4.7696022 3.1032275,4.7696022 h 0.786221 C 4.6354759,4.7696022 5.1597,4.3419169 5.1597,3.7325127 5.1597,3.4839404 5.0230798,3.1576163 4.9000788,2.9972468 4.7289476,2.7860928 4.6756696,2.6230927 4.6756696,2.3317545 c 0,-0.220377 0.050208,-0.4222424 0.1585724,-0.6118541 z"/>
 <path style="fill:#bf2033;stroke:none;stroke-width:.251431;stroke-miterlimit:4;stroke-dasharray:none" d="M 1.2874564,0.13230002 0.1323,1.3321947 0.23688424,1.4336836 c 0.0695248,0.069495 0.13361671,0.1470783 0.18709538,0.2299358 0.009244,0.014738 0.0251782,0.041208 0.0337784,0.056281 h 4.376484 c 0.0086,-0.015061 0.02453,-0.04153 0.033778,-0.056281 C 4.9214958,1.5807621 4.98292,1.5031771 5.0551158,1.4336836 L 5.1597,1.3321947 4.0045436,0.13494296 3.8999594,0.24964655 c -0.160436,0.17373346 -0.3689187,0.27010844 -0.5828335,0.27010844 -0.2700669,0 -0.4708061,-0.15488817 -0.5670672,-0.24843634 L 2.646,0.16982977 2.5445689,0.2686757 c -0.093584,0.0935462 -0.2943261,0.24843633 -0.5670672,0.24843633 -0.2165882,0 -0.4223975,-0.096375 -0.5828337,-0.27010842 z"/>
 <path style="fill:none;stroke:#fff;stroke-width:.2646;stroke-linejoin:round;stroke-miterlimit:4;stroke-dasharray:none" d="m 0.6163305,2.3317545 c 0,0.2913382 -0.053367,0.4516661 -0.2191539,0.6654923 -0.1256753,0.1603695 -0.2596211,0.4893656 -0.2596211,0.7352659 0,0.6094042 0.5215496,1.0370895 1.2702515,1.0370895 h 0.7835933 c 0.093584,0 0.1792473,0.042536 0.2380736,0.1147036 L 2.646,5.1597 2.8651538,4.8843058 C 2.9239758,4.8121368 3.0096404,4.7696022 3.1032275,4.7696022 h 0.786221 C 4.6354759,4.7696022 5.1597,4.3419169 5.1597,3.7325127 5.1597,3.4839404 5.0230798,3.1576163 4.9000788,2.9972468 4.7289476,2.7860928 4.6756696,2.6230927 4.6756696,2.3317545 c 0,-0.220377 0.050208,-0.4222424 0.1585722,-0.6118541 0.0086,-0.015061 0.02453,-0.04153 0.033778,-0.056281 C 4.9214958,1.5807621 4.98292,1.5031771 5.0551158,1.4336836 L 5.1597,1.3321947 4.0045436,0.13494296 3.8999594,0.24964655 c -0.160436,0.17373346 -0.3689187,0.27010844 -0.5828335,0.27010844 -0.2700669,0 -0.4708061,-0.15488817 -0.5670672,-0.24843634 L 2.646,0.16982977 2.5445689,0.2686757 c -0.093584,0.0935462 -0.2943261,0.24843633 -0.5670672,0.24843633 -0.2165882,0 -0.4223975,-0.096375 -0.5828337,-0.27010842 L 1.2874564,0.13230002 0.1323,1.3321947 0.2368842,1.4336836 c 0.069525,0.069495 0.1336168,0.1470783 0.1870954,0.2299358 0.00924,0.014738 0.025178,0.041208 0.033778,0.056281 0.1083817,0.1899458 0.1585727,0.3939383 0.1585729,0.6118541 z"/>
 <path style="fill:none;stroke:#fff;stroke-width:.2646px;stroke-linecap:butt;stroke-linejoin:miter;stroke-opacity:1" d="M 0.43659,1.7199 H 4.85541"/>
</svg>

<svg width="20" height="20" viewBox="0 0 5.292 5.292" xmlns="http://www.w3.org/2000/svg">
 <path style="fill:#003f87;stroke:none;stroke-width:.251431;stroke-miterlimit:4;stroke-dasharray:none" d="M4.834 1.72H.458c.108.19.158.394.158.612 0 .291-.053.451-.219.665-.125.16-.26.49-.26.736 0 .609.522 1.037 1.27 1.037h.784c.094 0 .18.042.238.114l.217.276.22-.276a.306.306 0 0 1 .237-.114h.786c.746 0 1.27-.428 1.27-1.037 0-.25-.136-.575-.259-.736-.171-.21-.224-.374-.224-.665 0-.22.05-.422.158-.612z"/>
 <path style="fill:#bf2033;stroke:none;stroke-width:.251431;stroke-miterlimit:4;stroke-dasharray:none" d="m1.287.132-1.155 1.2.105.102a1.407 1.407 0 0 1 .22.286h4.377l.034-.056a1.28 1.28 0 0 1 .187-.23l.105-.102L4.005.135 3.9.25a.797.797 0 0 1-.583.27A.835.835 0 0 1 2.75.27L2.646.17l-.101.099a.823.823 0 0 1-.567.248.792.792 0 0 1-.583-.27z"/>
 <path style="fill:none;stroke:#fff;stroke-width:.2646;stroke-linejoin:round;stroke-miterlimit:4;stroke-dasharray:none" d="M.616 2.332c0 .291-.053.451-.219.665-.125.16-.26.49-.26.736 0 .609.522 1.037 1.27 1.037h.784c.094 0 .18.042.238.114l.217.276.22-.276a.306.306 0 0 1 .237-.114h.786c.746 0 1.27-.428 1.27-1.037 0-.25-.136-.575-.259-.736-.171-.21-.224-.374-.224-.665a1.204 1.204 0 0 1 .192-.668 1.28 1.28 0 0 1 .187-.23l.105-.102L4.005.135 3.9.25a.797.797 0 0 1-.583.27A.835.835 0 0 1 2.75.27L2.646.17l-.101.099a.823.823 0 0 1-.567.248.792.792 0 0 1-.583-.27L1.287.132l-1.155 1.2.105.102a1.407 1.407 0 0 1 .22.286c.11.19.16.394.16.612z"/>
 <path style="fill:none;stroke:#fff;stroke-width:.2646px;stroke-linecap:butt;stroke-linejoin:miter;stroke-opacity:1" d="M.437 1.72h4.418"/>
</svg>
